!!!SOCIAL_FUNCTION:	bird dance songs
!!!PDT:	1956
!!!OTL: No_180_Song_of_an_Old_Dance_(c).krn
!!!LANG: Non-Tone
!!!LING_GROUP: Muskogean
!!!REG: Florida
**kern
*staff1
=1-
*clefF4
*k[b-e-a-]
*M2/4
8.B-\L
16B-\Jk
8.B-\L
16G\Jk
=2!|:
8.G\L
16B-\Jk
8.B-\L
16G\Jk
=3
8G\L
8F\J
4E-\
=4
4..F\
16E-\
=5
8.E-\L
16G\Jk
8.G\L
16E-\Jk
=6||
*M7/8
8.E-\L
16F\K
8.F\
16E-\K
8E-\
8E-\
8E-\J
=7||
*M3/4
2.E-\
=8||
*M2/4
8.E-\L
16E-\Jk
8.E-\L
16E-\Jk
=9||
*M5/8
8.F\L
16E-\K
8E-\
8E-\
8E-\J
=10||
*M2/4
4..F\
16E-\
=11
8.E-\L
16G\Jk
8.G\L
16E-\Jk
=12||
*M7/8
8.E-\L
16F\K
8.F\
16E-\K
8E-\
8E-\
8E-\J
=13||
*M2/4
2E-\
=14
8.E-\L
16B-\Jk
8.B-\L
16G\Jk
=15:|!
8.BB-/L
16BB-/Jk
8.BB-/L
16F/Jk
=16||
*M5/8
8.F\L
16E-\K
8E-\
8E-\
8E-\J
=17||
*M2/4
4.E-\
8r
=18
8.E-\L
16B-\Jk
8.B-\L
16G\Jk
=19
8.G\L
16B-\Jk
8.B-\L
16G\Jk
=20
8G\L
8F\J
4E-\
=21
4..F\
16E-\
=22
8.E-\L
16G\Jk
8.G\L
16E-\Jk
=23||
*M7/8
8.E-\L
16F\K
8.F\
16E-\K
8E-\
8E-\
8E-\J
=24||
*M2/4
2E-\
==
*-
